X: 718
T: King of the Fairies, The
B: jims roots
M:2/4
L:1/8
R: hornpipe
Q: 1/4=100
K:Emin
V:1 
B,|"Em"E/D/E/F/ G/F/G/A/|BB G3/2A/|BE E/F/G/E/|"D"F/G/F/E/ DB,|
"Em"E/D/E/F/ G/F/G/A/|"G"B/A/G/B/ d3/2c/|"Em"BE G/F/"Bm"E/D/|"Em"E2 E:|
B|"Em"ee B/d/e/f/|g/a/g/f/ e3/2f/|eB B/A/B/^c/|"Bm"d/e/d/c/ B/^c/d/B/|
"Em"eB B/d/e/f/|g/a/g/f/ e/f/e/d/|"Bm"B/d/e/g/ f/e/d/f/|"Em"e2 e3/2f/||
g3/2e/ "D"f3/2d/|"Em"e/d/B/^c/ "D"d3/2e/|d/B/A/F/ G/A/B/c/|d/B/A/F/ G/F/E/E/|
"Em"B,E E/F/G/A/|Be e/d/e/f/|eB "B7"B/A/G/F/|"Em"E4|]
% abcbook-tune_id 6298c25dfa090c90216eedd4


% abcbook-boost 0
% abcbook-tablature 
% abcbook-transpose 
% abcbook-lastupdated 1654178399530
% abcbook-soundfonts 
% abcbook-repeats 1


